assets/icons/cameradark.svg

<svg width="24" height="24" viewBox="0 0 24 24" fill="none" xmlns="http://www.w3.org/2000/svg">
<path d="M6.76017 22H17.2402C20.0002 22 21.1002 20.31 21.2302 18.25L21.7502 9.99C21.8902 7.83 20.1702 6 18.0002 6C17.3902 6 16.8302 5.65 16.5502 5.11L15.8302 3.66C15.3702 2.75 14.1702 2 13.1502 2H10.8602C9.83017 2 8.63017 2.75 8.17017 3.66L7.45017 5.11C7.17017 5.65 6.61017 6 6.00017 6C3.83017 6 2.11017 7.83 2.25017 9.99L2.77017 18.25C2.89017 20.31 4.00017 22 6.76017 22Z" stroke="black" stroke-width="1.5" stroke-linecap="round" stroke-linejoin="round"/>
<path d="M10.5 8H13.5" stroke="black" stroke-width="1.5" stroke-linecap="round" stroke-linejoin="round"/>
<path d="M12 18C13.79 18 15.25 16.54 15.25 14.75C15.25 12.96 13.79 11.5 12 11.5C10.21 11.5 8.75 12.96 8.75 14.75C8.75 16.54 10.21 18 12 18Z" stroke="black" stroke-width="1.5" stroke-linecap="round" stroke-linejoin="round"/>
</svg>

<svg width="24" height="24" viewBox="0 0 24 24" fill="none" xmlns="http://www.w3.org/2000/svg"><path d="M6.76 22h10.48c2.76 0 3.86-1.69 3.99-3.75l.52-8.26A3.75 3.75 0 0 0 18 6c-.61 0-1.17-.35-1.45-.89l-.72-1.45A3.3 3.3 0 0 0 13.15 2h-2.29a3.3 3.3 0 0 0-2.69 1.66l-.72 1.45C7.17 5.65 6.61 6 6 6a3.75 3.75 0 0 0-3.75 3.99l.52 8.26C2.89 20.31 4 22 6.76 22M10.5 8h3" stroke="black" stroke-width="1.5" stroke-linecap="round" stroke-linejoin="round"/><path d="M12 18a3.26 3.26 0 0 0 0-6.5 3.26 3.26 0 0 0 0 6.5" stroke="black" stroke-width="1.5" stroke-linecap="round" stroke-linejoin="round"/></svg>
